bots/cmping/seasonal/pride.svg

<svg width="2048" height="2048" fill="none" xmlns="http://www.w3.org/2000/svg"><path fill="url(#a)" d="M0 0h2048v2048H0z"/><path d="M787.347 613H585.466a846.999 846.999 0 0 1 739.974-66.911L1286.81 613h-26.16a762.3 762.3 0 0 0-473.303 0ZM1486.52 613h-91.38l91.8-159 68.53 39.567L1486.52 613Z" fill="#F27777"/><path d="M1302.76 773h129.21a697.335 697.335 0 0 0-27.08-18.61l32.89-56.978A762.217 762.217 0 0 1 1536.14 773h119.2a841.718 841.718 0 0 0-32.42-34.284 847.25 847.25 0 0 0-142.74-114.739l6.34-10.977h-91.38l-92.38 160ZM1194.43 773l54.62-94.607A696.595 696.595 0 0 0 616.035 773h578.395ZM511.86 773H392.656a846.995 846.995 0 0 1 192.81-160h201.881A762.293 762.293 0 0 0 511.86 773ZM1260.65 613h26.16l-4.33 7.495a760.06 760.06 0 0 0-21.83-7.495Z" fill="#E5AB71"/><path d="M1211.54 931h378.05a695.587 695.587 0 0 0-73.02-85.934 697.146 697.146 0 0 0-84.6-72.066h-129.21l-91.22 158ZM616.034 773h578.396l-91.22 158H458.406a696.581 696.581 0 0 1 157.628-158ZM392.655 773h119.204a762.288 762.288 0 0 0-132.645 158h-98.219a846.985 846.985 0 0 1 111.66-158ZM1655.34 773h-119.2a769.05 769.05 0 0 1 26.89 25.608A762.581 762.581 0 0 1 1668.79 931H1767a846.288 846.288 0 0 0-111.66-158Z" fill="#F2D377"/><path d="M1119.74 1090h91.38l19.09-33.06a348.62 348.62 0 0 1 38.72 33.06h406.17c-2.42-6.35-4.93-12.66-7.53-18.94A695.984 695.984 0 0 0 1589.59 931h-378.05l-91.8 159ZM458.406 931h644.804l-35.29 61.117a348.273 348.273 0 0 0-177.208 23.733A348.244 348.244 0 0 0 779.074 1090h-406.17a696.567 696.567 0 0 1 85.502-159ZM280.995 931h98.219a762.143 762.143 0 0 0-59.487 114.92 760.476 760.476 0 0 0-16.683 44.08h-89.035a846.523 846.523 0 0 1 27.465-76.5 847.183 847.183 0 0 1 39.521-82.5ZM1767.01 931h-98.22a762.198 762.198 0 0 1 59.48 114.92 756.205 756.205 0 0 1 16.69 44.08h89.03a847.098 847.098 0 0 0-27.46-76.5 847.639 847.639 0 0 0-39.52-82.5Z" fill="#5FB258"/><path d="M1027.37 1250h91.37l92.38-160h-91.38l-92.37 160ZM372.904 1090h406.17l-1.359 1.35a348.258 348.258 0 0 0-75.501 113 348.336 348.336 0 0 0-15.308 45.65h-353.97a696.687 696.687 0 0 1 39.968-160ZM214.009 1090h89.035a762.383 762.383 0 0 0-36.29 160h-85.208a847.015 847.015 0 0 1 32.463-160ZM1833.99 1090h-89.03a762.32 762.32 0 0 1 36.29 160h85.2a846.694 846.694 0 0 0-32.46-160ZM1715.06 1250a696.568 696.568 0 0 0-39.96-160h-406.17l1.35 1.35c32.35 32.34 58 70.74 75.51 113a348.001 348.001 0 0 1 15.3 45.65h353.97Z" fill="#6476CC"/><path fill-rule="evenodd" clip-rule="evenodd" d="M1088.33 1302.68c4.28 9.43 6.67 19.92 6.67 30.96 0 41.42-33.58 75-75 75-41.421 0-75-33.58-75-75 0-41.43 33.579-75 75-75 .79 0 1.58.01 2.36.03l5.01-8.67h91.37l-30.41 52.68Zm272.76-52.68c7.43 28.55 11.21 58 11.21 87.64h348.3c0-29.37-1.86-58.63-5.54-87.64h-353.97Zm420.16 0c3.36 29.03 5.05 58.29 5.05 87.64h84.7c0-29.33-1.52-58.58-4.55-87.64h-85.2Zm-1094.344 0a348.294 348.294 0 0 0-11.205 87.64H327.402c0-29.37 1.856-58.63 5.534-87.64h353.97Zm-420.152 0a762.234 762.234 0 0 0-5.054 87.64H177c0-29.33 1.523-58.58 4.546-87.64h85.208Z" fill="#8D58B2"/><defs><linearGradient id="a" x1="2048" y1="0" x2="0" y2="2048" gradientUnits="userSpaceOnUse"><stop stop-color="#71E6C5"/><stop offset="1" stop-color="#68D49E"/></linearGradient></defs></svg>

<svg width="2048" height="2048" viewBox="0 0 2048 2048" fill="none" xmlns="http://www.w3.org/2000/svg">
<rect width="2048" height="2048" fill="url(#paint0_linear_31047745)"/>
<path d="M787.347 613H585.466C621.999 590.891 660.235 571.526 699.867 555.11C802.63 512.544 912.771 490.636 1024 490.636C1127.08 490.636 1229.23 509.452 1325.44 546.089L1286.81 613H1260.65C1184.36 588.086 1104.5 575.336 1024 575.336C943.501 575.336 863.636 588.086 787.347 613Z" fill="#F27777"/>
<path d="M1486.52 613H1395.14L1486.94 454L1555.47 493.567L1486.52 613Z" fill="#F27777"/>
<path d="M1302.76 773H1431.97C1423.09 766.584 1414.06 760.379 1404.89 754.39L1437.78 697.412C1472.52 719.864 1505.42 745.136 1536.14 773H1655.34C1644.87 761.287 1634.06 749.854 1622.92 738.716C1579.52 695.319 1531.64 656.873 1480.18 623.977L1486.52 613H1395.14L1302.76 773Z" fill="#E5AB71"/>
<path d="M1194.43 773L1249.05 678.393C1176.69 653.691 1100.66 641.037 1024 641.037C932.522 641.037 841.939 659.055 757.424 694.063C707.269 714.838 659.834 741.354 616.035 773H1194.43Z" fill="#E5AB71"/>
<path d="M511.86 773H392.656C403.131 761.287 413.943 749.854 425.081 738.716C473.399 690.398 527.272 648.218 585.466 613H787.347C768.765 619.069 750.396 625.859 732.281 633.362C651.243 666.929 576.693 714.194 511.86 773Z" fill="#E5AB71"/>
<path d="M1260.65 613H1286.81L1282.48 620.495C1275.24 617.885 1267.96 615.387 1260.65 613Z" fill="#E5AB71"/>
<path d="M1211.54 931H1589.59C1567.67 900.5 1543.26 871.753 1516.57 845.066C1490.27 818.768 1461.97 794.68 1431.97 773H1302.76L1211.54 931Z" fill="#F2D377"/>
<path d="M616.034 773H1194.43L1103.21 931H458.406C480.334 900.5 504.744 871.753 531.431 845.066C557.729 818.768 586.028 794.68 616.034 773Z" fill="#F2D377"/>
<path d="M392.655 773H511.859C502.7 781.308 493.735 789.846 484.972 798.608C444.814 838.766 409.366 883.189 379.214 931H280.995C312.034 874.284 349.491 821.264 392.655 773Z" fill="#F2D377"/>
<path d="M1655.34 773H1536.14C1545.3 781.308 1554.26 789.846 1563.03 798.608C1603.19 838.766 1638.63 883.189 1668.79 931H1767C1735.97 874.284 1698.51 821.264 1655.34 773Z" fill="#F2D377"/>
<path d="M1119.74 1090H1211.12L1230.21 1056.94C1243.87 1066.98 1256.82 1078.02 1268.93 1090H1675.1C1672.68 1083.65 1670.17 1077.34 1667.57 1071.06C1647.01 1021.41 1620.82 974.429 1589.59 931H1211.54L1119.74 1090Z" fill="#5FB258"/>
<path d="M458.406 931H1103.21L1067.92 992.117C1053.39 990.269 1038.72 989.336 1024 989.336C978.261 989.336 932.969 998.345 890.712 1015.85C849.044 1033.11 811.131 1058.29 779.074 1090H372.904C375.318 1083.65 377.826 1077.34 380.427 1071.06C400.992 1021.41 427.183 974.429 458.406 931Z" fill="#5FB258"/>
<path d="M280.995 931H379.214C356.218 967.464 336.302 1005.9 319.727 1045.92C313.705 1060.45 308.142 1075.16 303.044 1090H214.009C221.92 1064.12 231.081 1038.59 241.474 1013.5C253.174 985.255 266.373 957.718 280.995 931Z" fill="#5FB258"/>
<path d="M1767.01 931H1668.79C1691.78 967.464 1711.7 1005.9 1728.27 1045.92C1734.3 1060.45 1739.86 1075.16 1744.96 1090H1833.99C1826.08 1064.12 1816.92 1038.59 1806.53 1013.5C1794.83 985.255 1781.63 957.718 1767.01 931Z" fill="#5FB258"/>
<path d="M1027.37 1250H1118.74L1211.12 1090H1119.74L1027.37 1250Z" fill="#6476CC"/>
<path d="M372.904 1090H779.074C778.62 1090.45 778.167 1090.9 777.715 1091.35C745.373 1123.69 719.717 1162.09 702.214 1204.35C696.051 1219.23 690.941 1234.48 686.906 1250H332.936C339.867 1195.35 353.265 1141.64 372.904 1090Z" fill="#6476CC"/>
<path d="M214.009 1090H303.044C285.214 1141.91 273.055 1195.56 266.754 1250H181.546C187.189 1195.75 198.06 1142.17 214.009 1090Z" fill="#6476CC"/>
<path d="M1833.99 1090H1744.96C1762.79 1141.91 1774.95 1195.56 1781.25 1250H1866.45C1860.81 1195.75 1849.94 1142.17 1833.99 1090Z" fill="#6476CC"/>
<path d="M1715.06 1250C1708.13 1195.35 1694.74 1141.64 1675.1 1090H1268.93C1269.38 1090.45 1269.83 1090.9 1270.28 1091.35C1302.63 1123.69 1328.28 1162.09 1345.79 1204.35C1351.95 1219.23 1357.06 1234.48 1361.09 1250H1715.06Z" fill="#6476CC"/>
<path fill-rule="evenodd" clip-rule="evenodd" d="M1088.33 1302.68C1092.61 1312.11 1095 1322.6 1095 1333.64C1095 1375.06 1061.42 1408.64 1020 1408.64C978.579 1408.64 945 1375.06 945 1333.64C945 1292.21 978.579 1258.64 1020 1258.64C1020.79 1258.64 1021.58 1258.65 1022.36 1258.67L1027.37 1250H1118.74L1088.33 1302.68ZM1361.09 1250C1368.52 1278.55 1372.3 1308 1372.3 1337.64H1720.6C1720.6 1308.27 1718.74 1279.01 1715.06 1250H1361.09ZM1781.25 1250C1784.61 1279.03 1786.3 1308.29 1786.3 1337.64H1871C1871 1308.31 1869.48 1279.06 1866.45 1250H1781.25ZM686.906 1250C679.483 1278.55 675.701 1308 675.701 1337.64H327.402C327.402 1308.27 329.258 1279.01 332.936 1250H686.906ZM266.754 1250C263.394 1279.03 261.7 1308.29 261.7 1337.64H177C177 1308.31 178.523 1279.06 181.546 1250H266.754Z" fill="#8D58B2"/>
<defs>
<linearGradient id="paint0_linear_31047745" x1="2048" y1="0" x2="0" y2="2048" gradientUnits="userSpaceOnUse">
<stop stop-color="#71E6C5"/>
<stop offset="1" stop-color="#68D49E"/>
</linearGradient>
</defs>
</svg>
